svg/emoji_u23ec.svg

<svg enable-background="new 0 0 128 128" viewBox="0 0 128 128" xmlns="http://www.w3.org/2000/svg"><linearGradient id="a" x1="64" x2="64" y1="4.25" y2="123.91" gradientUnits="userSpaceOnUse"><stop stop-color="#FFAB40" offset="0"/><stop stop-color="#FF6D00" offset="1"/></linearGradient><path d="m116 124h-104c-4.42 0-8-3.58-8-8v-104c0-4.42 3.58-8 8-8h104c4.42 0 8 3.58 8 8v104c0 4.42-3.58 8-8 8z" fill="url(#a)"/><g opacity=".2"><path d="m116 7c2.76 0 5 2.24 5 5v104c0 2.76-2.24 5-5 5h-104c-2.76 0-5-2.24-5-5v-104c0-2.76 2.24-5 5-5h104m0-3h-104c-4.42 0-8 3.58-8 8v104c0 4.42 3.58 8 8 8h104c4.42 0 8-3.58 8-8v-104c0-4.42-3.58-8-8-8z" fill="#424242"/></g><g fill="#424242" opacity=".2"><path d="m89.66 22c1.79 0 2.91 1.69 2.03 3.05l-25.66 38.92c-0.45 0.69-1.24 1.03-2.03 1.03s-1.58-0.34-2.03-1.03l-25.66-38.92c-0.89-1.36 0.24-3.05 2.03-3.05h51.32m0-3h-51.32c-2.02 0-3.84 1.05-4.75 2.74-0.86 1.58-0.78 3.43 0.21 4.95l25.67 38.93c0.97 1.49 2.67 2.38 4.53 2.38s3.56-0.89 4.54-2.38l25.65-38.92c1-1.52 1.08-3.37 0.22-4.96-0.91-1.69-2.73-2.74-4.75-2.74z"/><path d="m89.66 62c1.79 0 2.91 1.73 2.03 3.12l-25.66 39.83c-0.45 0.7-1.24 1.05-2.03 1.05s-1.58-0.35-2.03-1.05l-25.66-39.83c-0.89-1.39 0.24-3.12 2.03-3.12h51.32m0-3h-51.32c-1.99 0-3.81 1.05-4.73 2.73-0.87 1.6-0.81 3.47 0.18 5l25.67 39.84c0.97 1.52 2.67 2.43 4.55 2.43s3.58-0.91 4.55-2.43l25.66-39.82c0.99-1.55 1.05-3.42 0.18-5.01-0.93-1.69-2.74-2.74-4.74-2.74z"/></g><g fill="#FAFAFA"><path d="M64,22h25.66c1.79,0,2.91,1.69,2.03,3.05L66.03,63.97c-0.9,1.37-3.16,1.37-4.05,0L36.31,25.05 C35.42,23.69,36.55,22,38.34,22H64z"/><path d="M64,62h25.66c1.79,0,2.91,1.73,2.03,3.12l-25.66,39.83c-0.9,1.4-3.16,1.4-4.05,0L36.31,65.12 C35.42,63.73,36.55,62,38.34,62H64z"/></g></svg>

<svg width="128" height="128" style="enable-background:new 0 0 128 128;" xmlns="http://www.w3.org/2000/svg" xmlns:xlink="http://www.w3.org/1999/xlink">
  <g>
    <linearGradient id="SVGID_1_" gradientUnits="userSpaceOnUse" x1="64" x2="64" y1="4.25" y2="123.9133">
      <stop offset="0" style="stop-color:#FFAB40"/>
      <stop offset="1" style="stop-color:#FF6D00"/>
    </linearGradient>
    <path d="M116,124H12c-4.42,0-8-3.58-8-8V12c0-4.42,3.58-8,8-8h104c4.42,0,8,3.58,8,8v104 C124,120.42,120.42,124,116,124z" style="fill:url(#SVGID_1_);"/>
    <g style="opacity:0.2;">
      <path d="M116,7c2.76,0,5,2.24,5,5v104c0,2.76-2.24,5-5,5H12c-2.76,0-5-2.24-5-5V12c0-2.76,2.24-5,5-5H116 M116,4H12c-4.42,0-8,3.58-8,8v104c0,4.42,3.58,8,8,8h104c4.42,0,8-3.58,8-8V12C124,7.58,120.42,4,116,4L116,4z" style="fill:#424242;"/>
    </g>
    <g style="opacity:0.2;">
      <path d="M89.66,22c1.79,0,2.91,1.69,2.03,3.05L66.03,63.97C65.58,64.66,64.79,65,64,65 s-1.58-0.34-2.03-1.03L36.31,25.05C35.42,23.69,36.55,22,38.34,22H64H89.66 M89.66,19H64H38.34c-2.02,0-3.84,1.05-4.75,2.74 c-0.86,1.58-0.78,3.43,0.21,4.95l25.67,38.93C60.44,67.11,62.14,68,64,68c1.86,0,3.56-0.89,4.54-2.38L94.19,26.7 c1-1.52,1.08-3.37,0.22-4.96C93.5,20.05,91.68,19,89.66,19L89.66,19z" style="fill:#424242;"/>
      <path d="M89.66,62c1.79,0,2.91,1.73,2.03,3.12l-25.66,39.83c-0.45,0.7-1.24,1.05-2.03,1.05 s-1.58-0.35-2.03-1.05L36.31,65.12C35.42,63.73,36.55,62,38.34,62H64H89.66 M89.66,59H64H38.34c-1.99,0-3.81,1.05-4.73,2.73 c-0.87,1.6-0.81,3.47,0.18,5l25.67,39.84c0.97,1.52,2.67,2.43,4.55,2.43c1.88,0,3.58-0.91,4.55-2.43l25.66-39.82 c0.99-1.55,1.05-3.42,0.18-5.01C93.47,60.05,91.66,59,89.66,59L89.66,59z" style="fill:#424242;"/>
    </g>
    <g>
      <path d="M64,22h25.66c1.79,0,2.91,1.69,2.03,3.05L66.03,63.97c-0.9,1.37-3.16,1.37-4.05,0L36.31,25.05 C35.42,23.69,36.55,22,38.34,22H64z" style="fill:#FAFAFA;"/>
      <path d="M64,62h25.66c1.79,0,2.91,1.73,2.03,3.12l-25.66,39.83c-0.9,1.4-3.16,1.4-4.05,0L36.31,65.12 C35.42,63.73,36.55,62,38.34,62H64z" style="fill:#FAFAFA;"/>
    </g>
  </g>
</svg>
